X:1
T:Little House Under the Hill -- Jig
R:jig
B:Ryan's Mammoth Collection
N: 87 447
Z: Contributed by Ray Davies,  ray:davies99.freeserve.co.uk
M:6/8
L:1/8
K:G
ue|\
dcB dcB | dcB c2e | dcB dcB | cAB c2e |
dcB dcB | dcB deg | ece dBd | cAB c2:|
|:ue|\
dBB gBB | dcB dge | dBB gBB | cAB c2e |
dBB gBB | dcB def | gfa gdB | cAB c2:|
